build/images/g25.svg

<svg width="138" height="138" viewBox="0 0 138 138" fill="none" xmlns="http://www.w3.org/2000/svg">
<circle cx="69" cy="69" r="69" fill="#76BD5E"/>
<g clip-path="url(#clip0)">
<path d="M103.609 78.7939L93.4499 68.7576C92.6105 67.923 91.2545 67.923 90.4151 68.7576L80.6218 78.4943L69.7309 89.301C65.3401 93.6665 58.1943 93.6665 53.8035 89.301C49.4127 84.9355 49.4127 77.8309 53.8035 73.4655L65.3186 62.0168L74.4876 52.9007C75.327 52.0661 75.327 50.7179 74.4876 49.8833L64.3715 39.8256C63.5321 38.9911 62.1761 38.9911 61.3367 39.8256L52.1677 48.9418L40.6526 60.3904C29.0298 72.0317 29.1159 90.8418 40.8463 102.397C52.4905 113.867 71.2806 113.867 82.9249 102.397L93.8158 91.5693L103.609 81.8112C104.448 80.9766 104.448 79.6285 103.609 78.7939ZM62.8434 44.3623L69.9246 51.4027L63.7904 57.4801L56.7092 50.4397L62.8434 44.3623ZM79.847 99.3801C69.8601 109.309 53.6743 109.309 43.6874 99.3801C33.7004 89.4508 33.7004 73.3585 43.6874 63.4292L53.6743 53.4998L60.7341 60.5188L50.7471 70.4481C44.6775 76.4828 44.6775 86.2837 50.7471 92.3397C56.8168 98.3957 66.6746 98.3743 72.7657 92.3397L82.1285 83.031L89.2098 90.0714L79.847 99.3801ZM92.2446 87.0541L85.1633 80.0137L91.9217 73.2943L99.003 80.3347L92.2446 87.0541Z" fill="white"/>
<path d="M85.0125 28.056C84.1946 27.2001 82.8171 27.1787 81.9777 27.9918C81.9562 28.0132 81.9346 28.0346 81.9131 28.056L75.5636 34.3688C74.7242 35.2034 74.7242 36.5516 75.5636 37.3862C75.9511 37.7713 76.4892 38.0067 77.0703 38.0067C77.6514 38.0067 78.1895 37.7713 78.5985 37.3862L84.9479 31.0733C85.8089 30.2602 85.8304 28.8906 85.0125 28.056Z" fill="white"/>
<path d="M88.564 44.2982H79.5886C78.4048 44.2982 77.4363 45.2612 77.4363 46.4382C77.4363 47.6151 78.4048 48.5781 79.5886 48.5781H88.564C89.7478 48.5781 90.7163 47.6151 90.7163 46.4382C90.7163 45.2612 89.7478 44.2982 88.564 44.2982Z" fill="white"/>
<path d="M68.4824 22C67.2986 22 66.3301 22.963 66.3301 24.1399V33.0635C66.3301 34.2618 67.2986 35.2034 68.4824 35.2034C69.6662 35.2034 70.6348 34.2404 70.6348 33.0635V24.1399C70.6348 22.963 69.6662 22 68.4824 22Z" fill="white"/>
<path d="M115.081 58.0151C114.242 57.1805 112.886 57.1805 112.046 58.0151L105.697 64.3279C104.857 65.1625 104.857 66.5321 105.718 67.3452C106.558 68.1798 107.914 68.1798 108.753 67.3452L115.081 61.0324C115.92 60.1978 115.92 58.8497 115.081 58.0151Z" fill="white"/>
<path d="M118.848 73.4014H109.872C108.689 73.4014 107.72 74.3643 107.72 75.5413C107.72 76.7183 108.689 77.6812 109.872 77.6812H118.848C120.031 77.6812 121 76.7183 121 75.5413C121 74.3643 120.031 73.4014 118.848 73.4014Z" fill="white"/>
<path d="M98.6155 52.109C97.4317 52.109 96.4631 53.072 96.4631 54.2489V63.1725C96.4631 64.3708 97.4317 65.3124 98.6155 65.3124C99.7993 65.3124 100.768 64.3495 100.768 63.1725V54.2489C100.768 53.072 99.7993 52.109 98.6155 52.109Z" fill="white"/>
</g>
<defs>
<clipPath id="clip0">
<rect width="89" height="89" fill="white" transform="translate(32 22)"/>
</clipPath>
</defs>
</svg>

<svg width="138" height="138" fill="none" xmlns="http://www.w3.org/2000/svg"><circle cx="69" cy="69" r="69" fill="#76BD5E"/><g clip-path="url(#clip0)" fill="#fff"><path d="M103.609 78.794l-10.16-10.036a2.152 2.152 0 00-3.034 0l-9.793 9.736L69.73 89.301c-4.39 4.365-11.537 4.365-15.927 0-4.391-4.365-4.391-11.47 0-15.835l11.515-11.45 9.169-9.115a2.124 2.124 0 000-3.018L64.37 39.826a2.152 2.152 0 00-3.034 0l-9.17 9.116L40.654 60.39c-11.623 11.642-11.537 30.452.193 42.007 11.645 11.47 30.435 11.47 42.079 0l10.89-10.828 9.794-9.758a2.123 2.123 0 000-3.017zM62.843 44.362l7.082 7.04-6.135 6.078-7.08-7.04 6.133-6.078zM79.847 99.38c-9.987 9.929-26.173 9.929-36.16 0-9.987-9.93-9.987-26.021 0-35.95l9.987-9.93 7.06 7.019-9.987 9.93c-6.07 6.034-6.07 15.835 0 21.89 6.07 6.057 15.928 6.035 22.019 0l9.362-9.308 7.082 7.04-9.363 9.31zm12.398-12.326l-7.082-7.04 6.759-6.72 7.081 7.04-6.758 6.72zm-7.232-58.998a2.153 2.153 0 00-3.035-.064l-.065.064-6.35 6.313a2.123 2.123 0 000 3.017c.388.385.926.62 1.507.62a2.23 2.23 0 001.529-.62l6.349-6.313a2.123 2.123 0 00.065-3.017zm3.551 16.242h-8.975a2.152 2.152 0 00-2.153 2.14c0 1.177.969 2.14 2.153 2.14h8.975a2.152 2.152 0 002.152-2.14c0-1.177-.968-2.14-2.152-2.14zM68.482 22a2.152 2.152 0 00-2.152 2.14v8.923c0 1.199.969 2.14 2.152 2.14a2.153 2.153 0 002.153-2.14V24.14c0-1.177-.969-2.14-2.153-2.14zm46.599 36.015a2.152 2.152 0 00-3.035 0l-6.349 6.313c-.84.834-.84 2.204.021 3.017.84.835 2.196.835 3.035 0l6.328-6.313a2.123 2.123 0 000-3.017zm3.767 15.386h-8.976a2.153 2.153 0 00-2.152 2.14c0 1.177.969 2.14 2.152 2.14h8.976a2.153 2.153 0 002.152-2.14c0-1.177-.969-2.14-2.152-2.14zM98.615 52.109a2.153 2.153 0 00-2.152 2.14v8.923c0 1.199.969 2.14 2.153 2.14a2.153 2.153 0 002.152-2.14V54.25c0-1.177-.969-2.14-2.153-2.14z"/></g><defs><clipPath id="clip0"><path fill="#fff" transform="translate(32 22)" d="M0 0h89v89H0z"/></clipPath></defs></svg>
